spdb.svg

<?xml version="1.0" encoding="UTF-8"?>
<svg viewBox="0 0 24 24" version="1.1" xmlns="http://www.w3.org/2000/svg" xmlns:xlink="http://www.w3.org/1999/xlink">
    <title>SPD Bank</title>
        <path d="M0.311537211,6.49113088 C1.5590591,2.75957219 7.24752189,2.08928048 9.49736833,6.47348791 C4.55345316,6.22611126 3.77288119,9.84071201 3.66979904,10.5465818 L3.66032574,10.6180169 C3.65704508,10.6460052 3.65577061,10.6620544 3.65570236,10.6646107 L3.65503107,11.548824 C3.65501796,11.5902621 3.65500505,11.6331562 3.65499234,11.6775064 L3.65440158,20 L0,16.6079626 L0,8.96298152 C0,7.78915945 0.311537211,6.49120145 0.311537211,6.49120145 Z M19.6471509,6.37002953 L19.6226331,6.37063427 C19.2354311,6.38243528 14.3848155,6.61235643 13.855276,10.7327831 L13.8550575,10.7900166 C13.8478155,11.3632889 13.6698541,16.0606835 9.78845436,16.5726061 C9.78845436,16.5726061 5.30921267,17.3426865 4.13583533,13.5934142 C4.13583533,13.5934142 10.1357631,14.4113423 10.3400581,8.3494296 C10.2456069,2.65477295 17.6360702,2.27608425 19.6471509,6.37002953 Z M20.3482,0 L24,3.39076708 L24,11.0370185 C23.9703216,12.4365257 23.662546,13.2680161 23.59808,13.4275597 L23.5862792,13.4557991 C22.3388295,17.188628 16.7537789,17.9082495 14.5064618,13.5252418 C19.9497995,13.797861 20.3344695,9.419017 20.3482,9.33531876 C20.3497835,9.32562279 20.3510917,9.22349661 20.3521245,9.02893947 L20.3528474,8.8656908 L20.353012,8.81946275 L20.3539834,8.43520834 L20.3540964,8.37164941 L20.3549774,7.34824371 L20.355,7.25435557 L20.3550162,6.75241916 C20.3550076,6.68188366 20.3549947,6.60990391 20.3549774,6.5364799 L20.3542029,5.05886751 C20.354134,4.96811235 20.3540609,4.87591292 20.3539834,4.78226922 L20.3531701,3.90048065 C20.3530668,3.79817132 20.3529593,3.69441773 20.3528474,3.58921986 L20.3521245,2.94070133 C20.3510917,2.05290155 20.3497835,1.07266802 20.3482,0 Z" fill="#012882" fill-rule="nonzero"></path>
</svg>

<svg viewBox="0 0 24 24" xmlns="http://www.w3.org/2000/svg"><path d="M.312 6.491C1.559 2.76 7.248 2.09 9.497 6.473c-4.944-.247-5.724 3.368-5.827 4.074l-.01.071a.887.887 0 0 0-.004.047l-.001.884V20L0 16.608V8.963c0-1.174.312-2.472.312-2.472Zm19.335-.121h-.024c-.388.012-5.238.242-5.768 4.363v.057c-.007.573-.185 5.27-4.067 5.783 0 0-4.479.77-5.652-2.98 0 0 6 .818 6.204-5.244-.094-5.694 7.296-6.073 9.307-1.979ZM20.348 0 24 3.39v7.647c-.03 1.4-.337 2.231-.402 2.39l-.012.029c-1.247 3.733-6.832 4.452-9.08.07 5.444.272 5.828-4.107 5.842-4.19.002-.01.003-.113.004-.307v-.163l.001-.047.001-.384v-.063l.001-1.024V5.06l-.001-.277V3.9l-.001-.31v-.65L20.347 0Z" fill="#012882"/></svg>
